X:3
T:Saint le Seigneur - C96
M:6/8
K:C
C3 DEF|G3-G2z|A3 AGF|G3-G zG|A3 F2E|
D3-D2D|G3 E2D|C6|c3 B2A|G6|A3 c2B|c6||
